X:1
T:Lacrimosa pieta
T:Lacrimosa pieta
T:Gia.Girolamo Kapsperger
C:Gia.Girolamo Kapsperger
%%score [ 1 2 3 ] { ( 4 6 ) | 5 }
L:1/8
Q:1/4=120
M:4/4
K:F
V:1 treble nm="Soprano 1" snm="S 1"
V:2 treble nm="Soprano 2" snm="S 2"
V:3 bass nm="Bass" snm="B"
V:4 treble nm="BC" snm="BC"
V:6 treble 
V:5 bass 
V:1
 z4 c2 c2 | c6 B2- | B2 A2 A4 | z2 c2 c3 F | G6 G2 | G6 G2 | G2 A2 B4- | B2 A2 A3 d | d3 A A4- |1 %9
w: La- cri-|mo- sa|_ pie- ta|chi piu con-|so- la|mi, hor|che l'al- trui|_ do- lor il-|cor mi ma-|
w: Veg- gio|piu del|_ pa- stor|la greg- gia|ma- ce-|ra, e|co- me'in po-|* ch'i di tut-|ta di- sper-|
w: Cru- del|A- mor|_ co- si|la vi- ta|per- de-|si, ne|per la- gri-|* me'o prie- ghi-|mi- se- ra-|
w: O do-|glie sem-|pi- ter- ne'o|gi- o- ie|lob- bi-|li, I-|te- ne con-|* su- man- do'af-|flit- ti l'a-|
 A2 A2 G4 ::2 A2 A2 G3 G || cBAG BcFC | G6 G2 | F8 :| %14
w: * ce- ra,|* ce- ra, e|nell' in- te- ne not- t'il son- no'in-|vo- la|mi.|
w: * de- si,|* de- si, ne|bo- schi'er- ran- do scon- so- la- ta'e|la- ce-|ra.|
w: * bi- li,|* bi- li, la|spe- me de gl'a- ma- ti'un- gua ri-|ver- de-|si.|
w: * ni- mi,|* ni- mi, ch'io|can- te- ro d'A- mor l'i- re du-|rab- bi-|li.|
V:2
 A2 A2 A4- | A4 G4- | G2 F2 F4 | z2 F2 F3 A | E6 E2 | E6 E2 | E2 ^F2 G4- | G2 ^F2 F3 G | %8
w: La- cri- mo-|* sa|_ pie- ta|chi piu con-|so- la|mi, hor|che l'al- trui|_ do- lor il|
w: Veg- gio piu|_ del|_ pa- stor|la greg- gia|ma- ce-|ra, e|co- me'in po-|* ch'i di tut-|
w: Cru- del A-|* mor|_ co- si|la vi- ta|per- de-|si, ne|per la- gri-|* me'o prie- ghi|
w: O do- glie|_ sem-|pi- ter- ne'o|gi- o- ie|lob- bi-|li, I-|te- ne con-|* su- man- do'af-|
 G3 E ^F2 G2- |1 G2 ^F2 G4 ::2 G2 ^F2 G4 || z2 c2 fedc | BAGF F3 E | F8 :| %14
w: cor mi ma- *|* ce- ra,|* ce- ra,|e nell' in- te- ne|not- t'il son- no'in- vo- la|mi.|
w: ta di- sper- *|* de- si,|* de- si,|ne bo- schi'er- ran- do|scon- so- la- te la- ce-|ra.|
w: mi- se- ra- *|* bi- li,|* bi- li,|la spe- me de gl'a-|ma- ti'un- gua ri- ver- de-|si.|
w: flit- ti l'a- *|* ni- mi,|* ni- mi,|ch'io can- te- ro d'A-|mor l'i- re du- ra- bi-|li.|
V:3
 F,2 F,2 F,4- | F,4 E,4- | E,2 F,2 F,4 | z2 A,,2 A,,3 A,, | C,6 C,2 | C,6 C,2 | C,2 A,,2 G,,4- | %7
w: La- cri- mo-|* sa|_ pie- ta|chi piu con-|so- la|mi hor|che l'al- trui|
w: Veg- gio piu|_ del|_ pa- stor|la greg- gia|ma- ce-|ra, e|co- me'in po-|
w: Cru- del A-|* mor|_ co- si|la vi- ta|per- de-|si, ne|per la gri-|
w: O do- glie|_ sem|pi- ter- no'e|gi- o- ie|lob- bi-|li, I-|ter- ne con-|
 G,,2 C,2 D,3 =B,, | =B,,2 ^C,2 D,4- |1 D,2 D,2 G,,4 ::2 D,2 D,2 G,,2 C,2- || C,2 F,E, D,C,B,,A,, | %12
w: _ do lor il|cor mi ma-|* ce- ra,|* ce- ra, e|_ nell' in- te- ne nott' il|
w: * ch'i di tut-|ta di- sper-|* de- si,|* de- si, ne|_ bo- schi'er- ran do scon- so-|
w: * me'o prie- ghi|mi- se- ra|_ bi- li,|* bi- li,- la|_ spe- me de gl'a- ma- ti'un-|
w: * su- man do'af-|flit- ti l'a-|* ni- mi,|* ni- mi, ch'io|_ can- te- ro d'A- mor l'i-|
 G,,3 A,, C,3 C, | F,,8 :| %14
w: son- no'in- vo- la|mi.|
w: la- te la- ce-|ra.|
w: gua ri- ver- de-|si.|
w: re du- ra- bi-|li.|
V:4
 [FAc]8- | [FAc]4 [Gc]4- | [Gc]2 [Ac]2 [FAc]4 | [Fc]8 | [EGc]8 | [EG]8 | [EG]2 [^Fc]2 [DB]4- | %7
 [DB]2 [^FA]2 [FAd]2 [DG]2- | [DG]2 [EA]2 ^F2 G2- |1 G2 ^F2 [DG]4 ::2 G2 ^F2 [DG=B]2 [EG]2- || %11
 [EG]2 AG [B,F][CE] [DF][EA] | B2 GA c4 | [CFA]8 :| %14
V:5
 F,8- | F,4 E,4- | E,2 F,2 F,4 | A,8 | C,8 | C,8 | C,2 A,,2 G,,4- | G,,2 C,2 D,3 =B,, | %8
 =B,,2 ^C,2 [D,A,]4- |1 [D,A,]4 [G,B,]4 ::2 [D,A,]4 G,,2 C,2- || C,2 F,E, D,C,B,,A,, | %12
 G,,3 A,, [C,G,]4 | [F,,F,]8 :| %14
V:6
 x8 | x8 | x8 | x8 | x8 | x8 | x8 | x8 | x8 |1 x8 ::2 x8 || x8 | D2 EF F2 E2 | x8 :| %14

